X:1
T:Title
%%score [ 1 2 3 4 ]
L:1/8
Q:1/4=120
M:2/2
K:C
V:1 treble nm="MusicXML Part"
V:2 treble nm="MusicXML Part"
V:3 treble-8 nm="MusicXML Part"
V:4 bass nm="MusicXML Part"
V:1
 c4 c2 c2 | d2 B2 c4 | A2 c3 B G2 | %3
w: A- ni- ma|me- a do-|* * * mi-|
"^Magnificat Quinti Toni \"Anima mea\"""^Christobal de Morales" A8 | z2 G2 G2 G2 | A8 | %6
w: num,|a- ni- ma|me-|
 F4"^1545" G3 A |[M:2/2] B2 c3 A c2 | B2 A3 ^G G2 | A4 z2 c2 | c2 c2 d2 B2 | c3 A A4 | z4 z2 c2 | %13
w: a do- *||* * * mi-|num, a-|ni- ma me- a|do- mi- num,|a-|
 c2 c2 d2 B2 | c6 A2 | B2 G2 AB c2 | B2 A3 ^G G2 | A8- | A8- | %19
w: ni- ma me- a|do- *||* * * mi-|­num.||
"^Et exultavit spiritus meus\nin deo salutari meo." A8 ||[M:2/2] F4 A4- | A2 B2 c4- | c4 B4 | c8 | %24
w: |Qui- a|* re- spe-||xit|
 z8 | z2 C2 D2 F2 | E3 D EF G2- |[M:2/2] GE A2 G4 | z2 G2 A2 c2 | B2 d3 c A2 | c3 B G2 A2- | %31
w: |hu- mi- li-|ta- * * * *|* * * tem|an- cil- lae|su * * *||
 A2 G2 A2 c2 | B3 A Bc d2- | dc c4 B2 | c4 z2 c2- | cB G2 A4 | G4 z2 G2 | c3 c c2 A2 | B2 c3 BAG | %39
w: * * ae, an-|­cil * * * *|* * lae su-|ae. Ec-|* ce, e- *|nim ex|hoc be- a- tam|me di * * *|
 F2 E2 D4 | E4 z4 | z8 | z8 | G2 c3 c c2 | A2 B2 c2 d2- | dc c4 B2 | c8 | z8 | z4 G3 G | %49
w: |cent,|||ex hoc be- a-|tam me di *||cent||om- nes|
 G2 G2 A2 F2 | G4 E4 | z8 | z4 c3 c | c2 c2 d2 B2 | c4 A4- | A4 z4 | z4 c3 c | c2 c2 d4 | %58
w: ge- ne- ra- ti-|o- nes,||om- nes|ge- ne- ra- ti-|o- nes,||om- nes|ge- ne- ra-|
 B2 c3 BAG | A4 B2 c2 | B2 A3 ^G G2 | %61
w: ti- o- * * *|||
"^Quia fecit mihi magna,\nqui potens est et sanctum\nnomen eius." A8 ||[M:2/2] F8 | A4 c4 | c6 c2 | %65
w: nes.|Et|mi- *|se- ri-|
 c4 c2 c2 | c8 | c8 | z8 |[M:2/2] z8 | c6 c2 | c4 c4 | c8- | c8 | c4 c4 | d6 c2 | c8 | z8 | z4 c4 | %79
w: cor- di- a|e-|ius|||a pro-|ge- ni-|e||in pro-|ge- ni-|es||ti-|
 d4 B2 B2 | c4 A4 | z4 z2 c2 | d2 B2 c4- | c4 B4 | A4 z2 c2 | d2 B2 c4 | B4 A4 | z8 | z2 c2 d2 B2 | %89
w: men- ti- bus|e- um,|ti-|­men- ti- bus|* e-|um, ti-|men- ti- bus|e- um,||ti- men- ti-|
 c6 B2 | A2 GF G4 | z2 F4 G2- | G2 E2 E2 FG | ABcA B2 c2 | A4 z2 G2- | G2 c3 A c2 | B2 A3 G G2 | %97
w: bus e-|* * * um,|ti- men-|* ti- bus e *||­um, ti-|* men- ti- bus|e * * *|
"^Fecit potentiam in\nbrachio suo.\nDispersit superbos\nmente cordis sui." A8 ||[M:2/2] F8 | %99
w: um.|De-|
 A4 c4- | c2 c2 c4 | z2 c2 c2 G2 | c4 B2 G2- | GA B3 c d2- |[M:2/2] dcBA B4 | A4 z2 d2 | %106
w: po- *|* su- it|po- ten- tes|de se *|||de, po-|
 d3 c B2 G2 | A4 B4 | A3 G ABcA | B2 c3 B B2 | c8 | z4 G2 G2 | G2 A4 F2 | G3 A Bc d2- | %114
w: ten * * tes|de se-|||de|et ex-|al- ta- vit|hu * * * *|
 dc B2 A2 c2- | cBAG A4 | B4 G3 A | B2 A3 ^G G2 | A8 | z8 | z2 c2 c2 c2 | A2 A2 d4- | d2 d2 G4 | %123
w: * * mi- les, hu-||* mi *||les,||et ex- al-|­ta- vit hu-|* mi- les,|
 z2 c2 c2 c2 | d2 B2 c4 | B3 c d2 c2- | cB B2 c4 | c2 c2 c2 d2- | d2 B4 c2 | B2 A3 ^G G2 | %130
w: et ex- al-|ta- vit hu-|mi * * *|* * * les,|et ex- al- ta-|vit hu- *|* mi- * *|
"^Esurientes implevit\nbonis et divites\ndimisit inanes." A8 ||[M:2/2] z8 | z8 | z4 c4 | %134
w: les.|||Sus-|
 A2 G2 c3 c | B2 d3 c A2 |[M:2/2] c3 B G2 A2 | F2 G2 AB c2- | cB A4 G2 | A2 c2 B2 c2- | %140
w: ce- pit Is- ra-|el pu- * *|* * e- rum|su- * * * *||um, su * *|
 cB A2 G2 A2- | A2 GF E4 | z2 G3 G G2 | FEFG A4 | z2 c3 c c2 | A2 G2 c4- | c2 BA Bc d2- | %147
w: |* * * um,|pu- e- rum|su * * * um,|pu- e- rum|su- * *||
 dc c4 B2- | BG c3 B B2 | c4 z2 c2 | c2 c3 B G2 | A2 G3 F F2- | F2 ED E4 | z8 | z8 | z4 z2 c2 | %156
w: ||um re-|cor- da * *||* * * tus|||mi-|
 c2 c2 d4 | B2 B2 c3 B | A2 c2 B2 G2 | A2 c4 BA | B2 A4 ^G2 | A4 z2 A2- | AB c2 A2 d2- | %163
w: ­se- ri- cor-|di- ae su- *|ae, mi- se- ri-|cor- * di *|ae su- *|ae, su-||
 d2 ^cB c4- |"^Sicut locutus est ad patres\nnostros, Abraham et semini\neius in saecula." c8 || %165
w: * * * ae.||
[M:2/2] F8- | F8 | A8 | c6 c2 | c4 c4- | c4 c4 | d8- |[M:2/2] d4 c4 | c8- | c8- | c8 | z4 c4 | %177
w: Glo-||ri-|* a|pa- tri|* et|fi-|* li-|o|||et|
 c4 c4 | d4 B4 | c4 A4- | A4 z4 | z2 c3 c c2 | d2 B2 c4- | c4 A4 | z2 c3 c c2 | d2 B2 c4- | %186
w: spi- ri-|tu- i|sanc- to,||et spi- ri-|­tu- i sanc-|* to,|et spi- ri-|tu- i sanc-|
 c4 A2 c2 | B2 A3 ^G G2 | A8- | %189
w: ||to.|
"^Sicut erat in principio\net nunc et semper et in\nsaecula saeculorum.\nAmen." A8 |] %190
w: |
V:2
 z8 | z4 F4 | F2 F2 G2 E2 | F6 D2 | D4 z2 C2 | C2 C2 D4- | D4 B,3 C |[M:2/2] D2 E2 C2 F2 | %8
w: |A-|ni- ma me- a|do- mi-|num, a-|ni- ma me-|* a *|do- mi- num, a-|
w: ||||||||
 F2 F2 E4- | E4 A,2 C2- | CB, A,4 G,2 | A,B,CD E2 F2 | G2 DE FG A2 | G2 A3 G G2 | A4 F3 E | %15
w: ni- ma me-|* a do||* * * * * mi-|­num, do- * * * *|* * * mi-|num, do *|
w: |||||||
 D2 E2 C2 F2- | FD F2 E4- | E4 C4 | F2 E3 D D2 | E8 ||[M:2/2] z4 F4- | F2 D2 E2 F2- | F2 E2 D4 | %23
w: |* * * mi-|* num,|do * * mi-|num.|Qui-|* a re- spe-||
w: ||||||||
 C8 | z2 F,2 G,2 A,2- | A,2 G,4 F,2 | G,2 G3 FED |[M:2/2] E2 F2 D2 E2- | ED G4 F2 | G4 A4- | %30
w: xit|||* hu- * * *|­mi- li- ta- *||tem an-|
w: |qui- a re-|* spe- *|xit * * * *||||
 A2 G2 E2 F2- | FE D4 C2 | D4 z2 A2- | A2 F2 G3 F | ED E3 DCB, | A,2 E2 A,B,CD | EDEF G4 | %37
w: * cil- lae su-||­ae. Ec-|* ce, e *||nim, ec- ce, * * *|e * * * nim|
w: |||||||
 C2 F3 F F2 | D2 E2 F3 E | D2 C4 B,2 | C4 z4 | z4 z2 C2 | F3 F F2 D2 | EDEF EA, A2- | A2 GF E2 F2 | %45
w: ex hoc be- a-|tam me di- *||cent,|ex|hoc be- a- tam|me * * * * * di-||
w: ||||||||
 E3 D/C/ D4 | z4 z2 C2 | G3 G G2 G2 | F2 E4 DC | D3 E FEDC | D4 z2 G2- | GG G2 G2 A2 | F2 G3 FED | %53
w: * * * cent,|ex|hoc be- a- tam|me di * *||cent om-|* nes ge- ne- ra-|ti- o- * * *|
w: ||||||||
 E2 A3 G G2 | A4 z4 | z8 | z8 | F3 F F2 F2 | G2 E2 F4- | F2 A2 G2 E2 | F4 E4- | E8 ||[M:2/2] z8 | %63
w: |nes,|||om- nes ge- ne-|ra- ti- o-||* nes.|||
w: ||||||||||
 z8 | z8 | F4 F2 F2- | F2 E2 F2 E2 | F2 G2 A4 | G3 F ED G2- |[M:2/2] G2 F3 E E2 | F4 z4 | %71
w: ||Et mi- se-|* ri- cor *|* di- a|e- * * * *||ius|
w: ||||||||
 z2 F3 ECD | E2 F3 E A2- | AGEF G2 A2- | AG F2 E2 A2- | A2 GF G2 A2- | AG F4 E2 | F4 z2 G2- | %78
w: a * * *|* pro- * ge|* * * * * ni|* * * e in|* * * * pro-|* * ge- ni-|es ti-|
w: |||||||
 G2 A4 F2 | F2 G3 FED | E4 z2 F2 | G3 F E2 A2- | A2 G2 F2 ED | E2 A3 G G2 | A8 | z2 G2 A2 F2 | %86
w: * men- ti-|bus e * * *|um, ti-|men- ti- bus e-|||um,|ti- men- *|
w: ||||||||
 G3 F D2 F2 | CDEF GEFE | FG A3 G G2 | A3 G E2 G2- | GF F4 E2 | F4 z4 | z2 G2 A4 | F2 F2 G2 E2 | %94
w: * ti- bus e|||||um,|ti- men-|ti- bus e- um,|
w: ||||||||
 z2 F2 G4 | E2 E2 F3 E | D2 C2 D4 | E8 ||[M:2/2] z4 F4 | F6 F2 | E8 | G4 G4- | G2 C2 G4 | %103
w: ti- men-|ti- bus e- *||um.|De-|po- su-|it,|de- po-|* su- it|
w: |||||||||
 z2 D2 D2 B,2 |[M:2/2] D3 C B,A,/G,/ G2- | GF F2 G4- | G4 D4 | F3 E D2 B,2 | C3 D E2 C2 | %109
w: po- ten- tes|de * * * * se-|* * * de,|* po-|ten- * tes de|se * * *|
w: ||||||
 G4 z2 G2 | G2 G2 A2 F2 | G6 E2 | E4 z2 D2 | D2 B,2 D4 | D2 E4 C2 | E4 F3 E | D3 C B,4 | E4 z2 E2 | %118
w: ­de et|ex- al- ta- vit|hu- mi-|les et|ex- al- ta-|vit hu- *|* mi *|* * les,|* et|
w: |||||||||
 E2 E2 F2 D2 | E2 G3 FED | E2 A2 G4 | F4 z2 D2 | D2 D2 E3 F | G2 A3 E A2- | A2 G2 A2 E2 | %125
w: ex- al- ta- vit|hu- mi- * * *||­les, et|ex- al- ta- *|* * vit hu-|* * * mi-|
w: |||||||
 G4 z2 G2 | G2 G2 E2 E2 | A8 | G4 G2 G2- | GFED E4 | E8 ||[M:2/2] F4 D2 C2 | F3 F E2 A2- | %133
w: les, et|ex- al- ta- vit|hu-|mi- les, hu|* * * * mi-|les.|Sus- ce- pit|Is- ra- el pu-|
w: ||||||||
 A2 GF E4 | F2 G4 F2 | G4 F4 |[M:2/2] E8 | z2 E2 C2 F2 | E2 F4 D2 | E8 | F4 E2 A,B, | CD E3 D C2- | %142
w: * * * e-|rum su- *||­um,|pu- e- rum|su- * *||||
w: |||||||||
 C2 B,A, B,4 | A,4 z2 F2- | FF F2 E3 D | EF G4 F2 | G4 z2 G2- | G2 A2 F2 G2- | G2 E2 A2 G2- | %149
w: |um, pu-|* e- rum su- *||­um re-|* cor- da *||
w: |||||||
 GFED E2 A2- | AG F4 E2 | F2 G2 A4 | z2 G2 G2 G2 | A4 F2 G2- | GE A3 G F2- | FE E2 F2 A2 | %156
w: ||* * tus|mi- se- ri-|cor- di- ae|* * su- * *|* * * ae, mi-|
w: |||||||
 G2 A2 D2 A2- | AG G2 A4 | z2 A2 G3 G | F2 E2 G4- | G2 F2 E4 | E3 D E2 F2- | F2 E2 F2 D2 | E8- | %164
w: ­se- ri- cor- di-|* ae su- ae,|mi- se- ri-|cor- di- ae|* su- ae,|su * * *||ae.|
w: ||||||||
 E8 ||[M:2/2] C8 | D4 C4 | F8 | G8 | A4 G4 | C3 D E2 C2 | G4 D3 E |[M:2/2] F3 G A3 G | %173
w: |Glo-|ri- a|pa-|tri|et fi-|li * * *|||
w: |||||||||
 E2 A2 G2 F2 | G4 z2 G2- | GG G2 A2 F2 | G4 E4- | E4 z4 | z2 F3 F F2 | G2 E2 F3 G | AGFE D2 E2 | %181
w: |o et|* spi- ri- tu- i|sanc- to,||et spi- ri-|tu- i sanc- *||
w: ||||||||
 A,2 A2 G2 A2- | AG G2 A2 E2- | E2 A3 GFE | D2 E2 C2 F2- | F2 E3 DCB, | A,2 A3 G F2- | FD F2 E4- | %188
w: |* * * to, et|* spi * * *|* * ri- tu||* sanc- * *|* * * to.|
w: |||||i * * *||
 E8- | E8 |] %190
w: ||
w: ||
V:3
 z8 | z8 | z4 c4 | c2 c2 d4 | B4 c4- | c2 A2 A4- | A4 z4 |[M:2/2] z2 c2 c2 c2 | d4 B4 | c6 A2 | %10
w: ||A-|ni- ma me-|a do-|* mi- num,||a- ni- ma|me- a|do- mi-|
 A4 z4 | c4 c2 c2 | d2 B2 c4- | c2 A2 B4 | A8 | z2 c2 c2 c2 | d4 B4 | c6 A2 | A8- | A8 || %20
w: num,|a- ni- ma|me- a do-|* * mi-|num,|a- ni- ma|me- a|do- mi-|num.||
[M:2/2] z8 | z8 | z8 | F4 A4- | A2 B2 c4- | c4 B4 | c8 |[M:2/2] z8 | z4 c4 | d4 f4 | e6 c2 | %31
w: |||Qui- a|* re- spe-||xit||hu-|mi- li-|ta- tem|
 d4 e2 f2 | g6 f2 | e2 dc d4 | c8 | c2 c2 c4 | c8 | z8 | z8 | z4 z2 G2- | G2 c3 c c2 | A2 B2 cBAG | %42
w: an- cil- lae|su- *||ae.|Ec- ce, e-|nim|||ex|* hoc be- a-|tam me di * * *|
 AG c3 B B2 | c4 z4 | z4 z2 d2 | g3 g g2 g2 | e2 g4 fe | d2 e3 d d2- | d2 c4 BA | Bc d3 c c2- | %50
w: |­cent,|ex|hoc be- a- tam|me di- * *||||
 c2 B2 c4 | e3 e e2 e2 | f2 d2 e2 g2- | g2 fe d4 | e4 z2 c2- | cc c2 c2 d2 | B2 c3 BAG | A4 z4 | %58
w: * * cent|om- nes ge- ne-|ra- ti- o *||nes, om-|* nes ge- ne- ra-|ti- o * * *|nes,|
 z2 c3 c c2 | c2 d4 c2 | d3 c B4 | A8 ||[M:2/2] z8 | f4 f2 f2- | f2 e2 f2 e2 | f2 F3 GAB | c4 z4 | %67
w: om- nes ge-|­ne- ra- ti-|o * *|nes.||Et mi- se-|* ri- cor- di-|a e- * * *|ius,|
 z2 c2 c2 c2- | c2 B2 c2 B2 |[M:2/2] c2 A2 G4 | F2 f3 ecd | e2 f2 F4 | z4 z2 f2- | fecd e2 f2 | %74
w: et mi- se-|* ri- cor- di-|­a e- ius|a pro * * *|ge- ni- e|in|* * * * * pro-|
 FGAB c2 A2 | _B6 AG | F4 z2 c2 | d4 B2 B2 | c4 A4 | z8 | z2 c2 d4 | B2 c3 BcA | B4 A4 | %83
w: ge * * * * *|* ni *|es ti-|men- ti- bus|e- um,||ti- men-|ti- bus * * *|e- um,|
 z2 f2 g2 e2 | f2 d3 c A2 | B4 A4 | z2 e2 f2 d2 | e4 c2 d2- | dc A2 B4 | A4 z4 | z4 c4 | d4 B2 B2 | %92
w: ti- men- ti-|bus e- * *|* um,|ti- men- ti-|bus e- *||um,|ti-|men- ti- bus|
 c4 A4 | z4 z2 c2 | d4 B2 B2 | c3 B A2 F2 | G2 A2 _B4 | A8 ||[M:2/2] z8 | F8 | A4 c4- | c2 c2 c4 | %102
w: e- um,|ti-|­men- ti- bus|e * * *||um.||De-|po- *|* su- it,|
 z2 e2 e2 e2 | dcBA B4 |[M:2/2] z2 d2 d2 B2 | c2 d2 B4 | z2 d2 d2 B2 | c2 d4 e2- | edcB c2 e2- | %109
w: de- po- su-|it * * * *|po- ten- tes|de se- de,|po- ten- tes|de se- *||
 e2 dc d4 | c4 z4 | c4 c4 | c4 d4 | B2 d3 cBA | B4 z4 | c2 c2 c2 d2- | d2 B4 e2- | ed c2 B4 | %118
w: |de|et ex-|al- ta-|vit hu- mi * *|les,|et ex- al- ta-|* vit hu-|* * * mi-|
 A4 z4 | c3 d ef g2- | g2 f3 e e2 | f2 d3 cBA | G2 g3 fed | e6 f2 | d2 e2 ABcd | e2 d3 B e2 | %126
w: les,|et * * * *|* ex- * al-|­ta * * * *|vit hu * * *||||
 d4 c2 e2 | e2 e2 f4 | d3 c d2 e2- | ed c2 B4 | A8 ||[M:2/2] F8 | A4 c4- | c2 c2 c2 c2 | c8 | z8 | %136
w: mi- les, et|ex- al- ta-|vit * * hu|* * * mi-|les.|Sus-|ce- *|* pit Is- ra-|el||
[M:2/2] c8 | c4 c4- | c4 d4 | c4 z4 | c8 | c4 c4 | d8- | d8 | c8 | z2 c3 c c2 | d8 | e2 f2 d4 | %148
w: pu-|e- rum|* su-|um|re-|­cor- da-|||tus|mi- se- ri-|­cor-|di- ae su-|
 e4 d4 | c8 | z4 c4- | c2 c2 c4 | c8 | z8 | z2 c2 c2 c2 | d2 B2 (c3 d) | e2 f4 d2 | e4 A4- | %158
w: |ae,|re-|* cor- da-|tus||mi- se- ri-|cor- di- ae *|* su- *|* ae,|
 A4 z2 c2 | c2 c2 d4- | d4 B2 B2 | c8 | A8- | A8- | A8 ||[M:2/2] F8 | A8 | c4 d4 | e8 | e4 e4 | %170
w: * mi-|se- ri- cor-|* di- ae|su-|­ae.|||Glo-|ri-|a *|pa-|tri et|
 e3 d cB c2- | c2 BA B2 d2- |[M:2/2] dc A3 B c2- | cd e3 c f2- | f2 ed e3 d | c3 B A4 | G4 z2 g2- | %177
w: fi- * * * *|||||* * li-|o et|
 gg g2 a2 e2 | fedc d4 | c4 FGAB | c2 d2 B2 c2- | cBcd e4 | d2 e4 A2 | c3 c c2 d2 | B2 c3 B A2- | %185
w: * spi- ri- tu- i|sanc * * * *|to, et * * *|* spi- ri- tu||­i sanc- to,|et spi- ri- tu-|i sanc * *|
 A2 G2 A4 | z2 c3 c c2 | d4 B4 | c4 A4- | A8 |] %190
w: * * to,|et spi- ri-|­tu- i|sanc- to.||
V:4
 z8 | z8 | z8 | F,4 F,2 F,2 | G,4 E,4 | F,6 D,2 | D,4 z2 G,2 |[M:2/2] G,2 C,2 F,3 E, | D,4 E,4 | %9
w: |||A- ni- ma|me- a|do- mi-|num, a-|­ni- ma me- a|do- mi-|
 A,,2 A,2 A,2 A,2 | F,3 E, D,2 E,2 | A,,2 A,2 A,2 A,2 | G,4 F,4 | z8 | z2 F,2 F,2 F,2 | %15
w: num, a- ni- ma|me- a do- mi-|num, a- ni- ma|me- a,||a- ni- ma|
 G,2 E,2 F,3 E, | D,4 E,4 | A,,2 A,3 G,F,E, | D,2 C,2 D,4 | %19
w: me- a do- *|* mi-|­num, do * * *|* * mi-|
"^© Michael Wendel 2006\nThis edition may be freely duplicated, distributed, performed or recorded for non-profit performance or use.\n" A,,8 || %20
w: num.|
[M:2/2] z8 | z8 | z8 | z4 F,4- | F,2 D,2 E,2 F,2- | F,2 E,2 D,4 | C,4 z2 C2- | %27
w: |||Qui-|* a re- spe-||xit hu-|
[M:2/2] C2 A,2 B,2 C2- | C2 B,2 A,4 | G,3 F, D,E,F,G, | A,B, C4 A,2 | _B,4 A,4 | G,3 F, E,2 D,2 | %33
w: * mi- li- ta|||* * * tem|an cil-|­lae * * *|
 A,4 G,4 | z2 C3 B, A,2- | A,G, E,2 F,4 | C,8 | z8 | z8 | z8 | C,4 F,3 F, | F,2 D,2 E,2 F,2- | %42
w: su- ae.|Ec- ce, e-||nim||||ex hoc be-|a- tam me di-|
 F,E,D,C, D,4 | C,4 z4 | z8 | z4 G,4 | C3 C C2 A,2 | B,2 C3 B, G,2 | A,4 G,4- | G,4 F,2 A,2 | %50
w: |­cent,||ex|hoc be- a- tam|me di- * *|* cent,|* me di-|
 G,4 C,4 | C3 C C2 C2 | D2 B,2 C4- | C2 A,2 B,4 | A,8 | F,3 F, F,2 F,2 | G,2 E,2 F,4- | F,4 D,4 | %58
w: * cent|om- nes ge- ne-|ra- ti- o-||nes,|om- * nes ge-|ne- ra- ti-|o- nes,|
 z4 F,3 F, | F,2 F,2 G,2 A,2 | D,4 E,4 | A,,8 || z8 | z8 | z8 | z8 | z8 | z8 | z8 | z8 | z8 | z8 | %72
w: om- nes|ge- ne- ra- ti-|o- *|nes.|||||||||||
 z8 | z8 | z8 | z8 | z8 | z8 | z8 | z8 | z8 | z8 | z8 | z8 | z8 | z8 | z8 | z8 | z8 | z8 | z8 | %91
w: |||||||||||||||||||
 z8 | z8 | z8 | z8 | z8 | z8 | z8 ||[M:2/2] z8 | z8 | z8 | z4 C,4- | C,4 E,4 | G,6 G,2 | %104
w: ||||||||||De-|* po-|* su-|
[M:2/2] G,8 | z4 G,4 | G,8 | F,4 G,4 | A,8 | G,8 | z8 | z8 | z8 | G,4 G,4 | G,4 A,4- | A,4 F,4 | %116
w: ­it|po-|ten-|tes de|se-|­de||||et ex-|al- ta-|* vit|
 G,6 E,2 | E,8 | z8 | z4 C4 | C4 C4 | D8 | B,4 C4- | C2 A,2 A,4 | z8 | G,4 G,4 | G,4 A,4- | %127
w: hu- mi-|les,||et|ex- al-|­ta-|vit hu-|* mi- les,||et ex-|al- ta-|
 A,4 F,4 | G,6 E,2 | E,8 | A,,8 ||[M:2/2] z4 z2 F,2- | F,2 D,2 C,2 F,2- | F,F, E,2 A,3 G, | %134
w: * vit|hu- *|mi-|les.|Sus-|* ce- pit Is-|* ra- el pu- *|
 F,2 E,2 A,4 | G,3 F, D,E,F,G, |[M:2/2] A,B, C3 B, A,2- | A,G, E,2 F,3 G, | A,2 F,2 _B,4 | %139
w: e- rum su-||||* um, su-|
 A,4 G,2 A,2 | F,4 z2 F,2- | F,F, E,2 A,4 | G,8 |"^*""^orig. C""^*" D,8 | F,4 C,2 C2- | CC C2 A,4 | %146
w: |um, pu-|* e- rum su-|||* um, pu-|* e- rum su-|
 G,8 | z4 z2 G,2- | G,2 A,2 F,2 G,2 | C,2 C3 B,A,G, | F,3 E, C,4 | F,2 E,2 F,4 | C,4 z2 C2 | %153
w: ­um|re-|* cor- da *||* * tus,|re- cor- da-|tus mi-|
 C2 C2 D2 B,2 | C2 F,3 G, A,2 | G,4 F,4 | z8 | z4 z2 F,2 | F,2 F,2 G,2 E,2 | F,2 A,2 G,4- | %160
w: se- ri- cor- di-|ae su- * *|* ae,||mi-|se- ri- cor- di-|ae su *|
 G,2 D,2 E,4 | A,,2 A,3 G, F,2- | F,E, C,2 D,4 | A,,8- | A,,8 ||[M:2/2] F,8 | D,4 F,4- | %167
w: |ae, su- * *||ae.||Glo-|ri- a|
 F,2 E,2 D,4 | C,4 C4 | A,4 C4- | C2 B,2 A,4 | G,8 |[M:2/2] D,3 E, F,3 G, | A,3 B, C2 F,2 | C8 | %175
w: * * pa-|tri et|fi *||||* * * li-|o|
 z2 C3 C C2 | D2 B,2 C4- | C4 A,4 | z8 | z4 z2 F,2- | F,F, F,2 G,2 E,2 | F,G,A,B, C2 A,2 | %182
w: et spi- ri-|tu- i sanc-|* to,||et|* spi- ri- tu- i|sanc * * * * *|
 B,2 E,2 A,4 | z2 F,3 F, F,2 | G,2 E,2 F,3 E, | D,2 E,2 A,,2 A,2- | A,G,F,E, F,3 E, | D,4 E,4 | %188
w: * * to,|et spi- ri-|tu- i sanc *|* * to, sanc|||
 A,,8- | A,,8 |] %190
w: to.||

